Soft/dist/img/icons/settings.svg

<svg width="75" height="75" viewBox="0 0 75 75" fill="none" xmlns="http://www.w3.org/2000/svg">
<rect width="75" height="75" rx="10" fill="url(#paint0_linear_12790_452)"/>
<g clip-path="url(#clip0_12790_452)">
<path d="M53.9516 41.3354L50.7345 38.8198C50.7753 38.4319 50.8103 37.9784 50.8103 37.4986C50.8103 37.0188 50.7768 36.5653 50.7345 36.1773L53.9545 33.6603C54.5525 33.1878 54.7158 32.3492 54.3351 31.6507L50.9897 25.8625C50.6324 25.2092 49.8493 24.8737 49.0545 25.1669L45.2584 26.6908C44.5308 26.1658 43.768 25.7225 42.9791 25.3681L42.4016 21.3417C42.3068 20.5775 41.6418 20 40.8558 20H34.1475C33.3614 20 32.6979 20.5775 32.6045 21.33L32.0256 25.3711C31.2614 25.7153 30.5104 26.1528 29.7506 26.6937L25.9443 25.1654C25.2311 24.8898 24.378 25.1989 24.0236 25.8494L20.6739 31.6448C20.2787 32.3128 20.442 33.1804 21.0531 33.6646L24.2701 36.1803C24.2191 36.6717 24.1943 37.099 24.1943 37.5001C24.1943 37.9011 24.2191 38.3284 24.2701 38.8213L21.0501 41.3384C20.4522 41.8123 20.2903 42.6509 20.6709 43.3479L24.0164 49.1361C24.3737 49.7879 25.1495 50.1262 25.9516 49.8317L29.7476 48.3078C30.4739 48.8313 31.2366 49.2746 32.0256 49.6304L32.6031 53.6554C32.6978 54.4225 33.3614 55 34.1489 55H40.8572C41.6433 55 42.3083 54.4225 42.4016 53.67L42.9805 49.6304C43.7447 49.2848 44.4943 48.8487 45.2555 48.3062L49.0618 49.8346C49.2455 49.906 49.4366 49.9425 49.6334 49.9425C50.1993 49.9425 50.7199 49.6333 50.9824 49.1521L54.3424 43.3333C54.7158 42.6508 54.5524 41.8123 53.9516 41.3354ZM37.5016 43.3333C34.2845 43.3333 31.6683 40.7171 31.6683 37.5C31.6683 34.2829 34.2845 31.6667 37.5016 31.6667C40.7186 31.6667 43.3349 34.2829 43.3349 37.5C43.3349 40.7171 40.7186 43.3333 37.5016 43.3333Z" fill="white"/>
</g>
<defs>
<linearGradient id="paint0_linear_12790_452" x1="3" y1="2.5" x2="60.5" y2="75" gradientUnits="userSpaceOnUse">
<stop stop-color="#FF9A9A"/>
<stop offset="1" stop-color="#F14C4C"/>
</linearGradient>
<clipPath id="clip0_12790_452">
<rect width="35" height="35" fill="white" transform="translate(20 20)"/>
</clipPath>
</defs>
</svg>

<svg width="75" height="75" fill="none" xmlns="http://www.w3.org/2000/svg"><rect width="75" height="75" rx="10" fill="url(#paint0_linear_12790_452)"/><g clip-path="url(#clip0_12790_452)"><path d="M53.952 41.335l-3.218-2.515c.041-.388.076-.842.076-1.321 0-.48-.033-.934-.076-1.322l3.22-2.517c.599-.472.762-1.31.381-2.01l-3.345-5.787c-.358-.654-1.14-.99-1.936-.696l-3.796 1.524a13.014 13.014 0 00-2.279-1.323l-.577-4.026A1.549 1.549 0 0040.856 20h-6.709c-.786 0-1.45.578-1.542 1.33l-.58 4.041c-.764.344-1.515.782-2.274 1.323l-3.807-1.529c-.713-.275-1.566.034-1.92.684l-3.35 5.796a1.568 1.568 0 00.38 2.02l3.216 2.515a12.71 12.71 0 00-.076 1.32c0 .401.025.828.076 1.321l-3.22 2.517c-.598.474-.76 1.313-.38 2.01l3.346 5.788c.358.652 1.134.99 1.936.696l3.796-1.524c.726.523 1.489.967 2.278 1.322l.577 4.025A1.548 1.548 0 0034.15 55h6.708c.786 0 1.451-.578 1.545-1.33l.578-4.04a13.476 13.476 0 002.276-1.324l3.806 1.529c.184.071.375.108.571.108a1.54 1.54 0 001.35-.79l3.36-5.82a1.574 1.574 0 00-.391-1.998zm-16.45 1.998a5.84 5.84 0 01-5.834-5.833 5.84 5.84 0 015.834-5.833 5.84 5.84 0 015.833 5.833 5.84 5.84 0 01-5.833 5.833z" fill="#fff"/></g><defs><linearGradient id="paint0_linear_12790_452" x1="3" y1="2.5" x2="60.5" y2="75" gradientUnits="userSpaceOnUse"><stop stop-color="#FF9A9A"/><stop offset="1" stop-color="#F14C4C"/></linearGradient><clipPath id="clip0_12790_452"><path fill="#fff" transform="translate(20 20)" d="M0 0h35v35H0z"/></clipPath></defs></svg>
